assets/img/others/ruby.svg

<svg xmlns="http://www.w3.org/2000/svg" xmlns:xlink="http://www.w3.org/1999/xlink" width="75" height="75" viewBox="0 0 198.1 197.6" overflow="visible">
  <defs>
    <linearGradient id="a" x1="174.1" x2="132.3" y1="215.5" y2="141.8" gradientUnits="userSpaceOnUse">
      <stop offset="0" stop-color="#FB7655"/>
      <stop offset="0" stop-color="#FB7655"/>
      <stop offset=".4" stop-color="#E42B1E"/>
      <stop offset="1" stop-color="#900"/>
      <stop offset="1" stop-color="#900"/>
    </linearGradient>
    <linearGradient id="c" x1="194.9" x2="141" y1="153.6" y2="117.4" gradientUnits="userSpaceOnUse">
      <stop offset="0" stop-color="#871101"/>
      <stop offset="0" stop-color="#871101"/>
      <stop offset="1" stop-color="#911209"/>
      <stop offset="1" stop-color="#911209"/>
    </linearGradient>
    <linearGradient id="d" x1="151.8" x2="97.9" y1="217.8" y2="181.6" gradientUnits="userSpaceOnUse">
      <stop offset="0" stop-color="#871101"/>
      <stop offset="0" stop-color="#871101"/>
      <stop offset="1" stop-color="#911209"/>
      <stop offset="1" stop-color="#911209"/>
    </linearGradient>
    <linearGradient id="e" x1="38.7" x2="47" y1="127.4" y2="181.7" gradientUnits="userSpaceOnUse">
      <stop offset="0" stop-color="#FFF"/>
      <stop offset="0" stop-color="#FFF"/>
      <stop offset=".2" stop-color="#E57252"/>
      <stop offset=".5" stop-color="#DE3B20"/>
      <stop offset="1" stop-color="#A60003"/>
      <stop offset="1" stop-color="#A60003"/>
    </linearGradient>
    <linearGradient id="f" x1="96.1" x2="99.2" y1="76.7" y2="132.1" gradientUnits="userSpaceOnUse">
      <stop offset="0" stop-color="#FFF"/>
      <stop offset="0" stop-color="#FFF"/>
      <stop offset=".2" stop-color="#E4714E"/>
      <stop offset=".6" stop-color="#BE1A0D"/>
      <stop offset="1" stop-color="#A80D00"/>
      <stop offset="1" stop-color="#A80D00"/>
    </linearGradient>
    <linearGradient id="g" x1="147.1" x2="156.3" y1="25.5" y2="65.2" gradientUnits="userSpaceOnUse">
      <stop offset="0" stop-color="#FFF"/>
      <stop offset="0" stop-color="#FFF"/>
      <stop offset=".2" stop-color="#E46342"/>
      <stop offset=".4" stop-color="#C82410"/>
      <stop offset="1" stop-color="#A80D00"/>
      <stop offset="1" stop-color="#A80D00"/>
    </linearGradient>
    <linearGradient id="h" x1="119" x2="158.7" y1="11.5" y2="-8.3" gradientUnits="userSpaceOnUse">
      <stop offset="0" stop-color="#FFF"/>
      <stop offset="0" stop-color="#FFF"/>
      <stop offset=".5" stop-color="#C81F11"/>
      <stop offset="1" stop-color="#BF0905"/><stop offset="1" stop-color="#BF0905"/>
    </linearGradient>
    <linearGradient id="i" x1="3.9" x2="7.2" y1="113.6" y2="146.3" gradientUnits="userSpaceOnUse">
      <stop offset="0" stop-color="#FFF"/>
      <stop offset="0" stop-color="#FFF"/>
      <stop offset=".3" stop-color="#DE4024"/>
      <stop offset="1" stop-color="#BF190B"/>
      <stop offset="1" stop-color="#BF190B"/>
    </linearGradient>
    <linearGradient id="j" x1="-18.6" x2="135" y1="155.1" y2="-2.8" gradientUnits="userSpaceOnUse">
      <stop offset="0" stop-color="#BD0012"/>
      <stop offset="0" stop-color="#BD0012"/>
      <stop offset=".1" stop-color="#FFF"/>
      <stop offset=".2" stop-color="#FFF"/>
      <stop offset=".3" stop-color="#C82F1C"/>
      <stop offset=".3" stop-color="#820C01"/>
      <stop offset=".5" stop-color="#A31601"/>
      <stop offset=".7" stop-color="#B31301"/>
      <stop offset="1" stop-color="#E82609"/>
      <stop offset="1" stop-color="#E82609"/>
    </linearGradient>
    <linearGradient id="k" x1="99.1" x2="52.8" y1="171" y2="159.6" gradientUnits="userSpaceOnUse">
      <stop offset="0" stop-color="#8C0C01"/>
      <stop offset="0" stop-color="#8C0C01"/>
      <stop offset=".5" stop-color="#990C00"/>
      <stop offset="1" stop-color="#A80D0E"/>
      <stop offset="1" stop-color="#A80D0E"/>
    </linearGradient>
    <linearGradient id="l" x1="178.5" x2="137.4" y1="115.5" y2="78.7" gradientUnits="userSpaceOnUse">
      <stop offset="0" stop-color="#7E110B"/>
      <stop offset="0" stop-color="#7E110B"/>
      <stop offset="1" stop-color="#9E0C00"/>
      <stop offset="1" stop-color="#9E0C00"/>
    </linearGradient>
    <linearGradient id="m" x1="193.6" x2="173.2" y1="47.9" y2="26.1" gradientUnits="userSpaceOnUse">
      <stop offset="0" stop-color="#79130D"/>
      <stop offset="0" stop-color="#79130D"/>
      <stop offset="1" stop-color="#9E120B"/>
      <stop offset="1" stop-color="#9E120B"/>
    </linearGradient>
    <radialGradient id="n" cx="143.8" cy="79.4" r="50.4" gradientUnits="userSpaceOnUse">
      <stop offset="0" stop-color="#A80D00"/>
      <stop offset="0" stop-color="#A80D00"/>
      <stop offset="1" stop-color="#7E0E08"/>
      <stop offset="1" stop-color="#7E0E08"/>
    </radialGradient>
    <radialGradient id="o" cx="74.1" cy="145.8" r="66.9" gradientUnits="userSpaceOnUse">
      <stop offset="0" stop-color="#A30C00"/>
      <stop offset="0" stop-color="#A30C00"/>
      <stop offset="1" stop-color="#800E08"/>
      <stop offset="1" stop-color="#800E08"/>
    </radialGradient>
    <linearGradient id="p" x1="26.7" x2="10" y1="197.3" y2="140.7" gradientUnits="userSpaceOnUse">
      <stop offset="0" stop-color="#8B2114"/>
      <stop offset="0" stop-color="#8B2114"/>
      <stop offset=".4" stop-color="#9E100A"/>
      <stop offset="1" stop-color="#B3100C"/>
      <stop offset="1" stop-color="#B3100C"/>
    </linearGradient>
    <linearGradient id="q" x1="154.6" x2="192" y1="9.8" y2="26.3" gradientUnits="userSpaceOnUse">
      <stop offset="0" stop-color="#B31000"/>
      <stop offset="0" stop-color="#B31000"/>
      <stop offset=".4" stop-color="#910F08"/>
      <stop offset="1" stop-color="#791C12"/>
      <stop offset="1" stop-color="#791C12"/>
    </linearGradient>
    <linearGradient id="b" x1="174.1" x2="132.3" y1="215.5" y2="141.8" gradientUnits="userSpaceOnUse" xlink:href="#a"/>
  </defs>
  <path fill="url(#b)" fill-rule="evenodd" d="M153.5 130.4l-113 67.2 146.3-10 11.2-147.6" clip-rule="evenodd"/>
  <path fill="url(#c)" fill-rule="evenodd" d="M187 187.5l-12.5-86.8-34.3 45.2" clip-rule="evenodd"/>
  <path fill="url(#d)" fill-rule="evenodd" d="M187.3 187.5l-92.3-7.2-54 17" clip-rule="evenodd"/>
  <path fill="url(#e)" fill-rule="evenodd" d="M41 197.4l23-75.4-50.7 10.8" clip-rule="evenodd"/>
  <path fill="url(#f)" fill-rule="evenodd" d="M140.2 146.2l-21.2-83-60.7 56.8" clip-rule="evenodd"/>
  <path fill="url(#g)" fill-rule="evenodd" d="M193.3 64.3l-57.3-46.8-16 51.5" clip-rule="evenodd"/>
  <path fill="url(#h)" fill-rule="evenodd" d="M166.5.8l-33.7 18.6-21.3-19" clip-rule="evenodd"/>
  <path fill="url(#i)" fill-rule="evenodd" d="M0 158l14-25.7-11.3-30.7" clip-rule="evenodd"/>
  <path fill="#fff" fill-rule="evenodd" d="M2 100.7l11.4 32.6 50-11.2 57-53 16.2-51-25.4-18-43 16-41.2 38.9c-1 0-17.4 31.3-25.3 46z" clip-rule="evenodd"/>
  <path fill="url(#j)" fill-rule="evenodd" d="M42.3 42c29.5-29 67.4-46.4 82-31.7 14.5 14.7-1 50.4-30.3 79.7-29.6 29-67 47-81.6 32.4-14.4-14.4.6-51 30-80.4z" clip-rule="evenodd"/>
  <path fill="url(#k)" fill-rule="evenodd" d="M41 197.4l23-75.7 75.8 24.3c-27.5 25.8-58 47.6-98.8 51.4z" clip-rule="evenodd"/>
  <path fill="url(#l)" fill-rule="evenodd" d="M120.6 69l19.5 77c23-24 44-50 54-82l-73 5z" clip-rule="evenodd"/>
  <path fill="url(#m)" fill-rule="evenodd" d="M193.4 64.4c7.8-23.6 9.6-57.4-27-63.6l-30.4 16.7 57.4 47z" clip-rule="evenodd"/>
  <path fill="#9e1209" fill-rule="evenodd" d="M0 157.8c1 38.8 29 39.4 41 39.7l-27.5-64.5-13.5 25z" clip-rule="evenodd"/>
  <path fill="url(#n)" fill-rule="evenodd" d="M120.7 69l53.8 33c1 .6 15.3-24 18.5-37.8l-72.3 4.8z" clip-rule="evenodd"/>
  <path fill="url(#o)" fill-rule="evenodd" d="M63.8 121.7l30.6 59c18-10 32.2-21.8 45.2-34.6l-75.8-24z" clip-rule="evenodd"/>
  <path fill="url(#p)" fill-rule="evenodd" d="M13.3 133.2l-4.3 51.6c8.2 11 19.4 12 31.2 11.2-8.5-21.2-25.6-63.7-27-62.8z" clip-rule="evenodd"/>
  <path fill="url(#q)" fill-rule="evenodd" d="M136 17.6l60.6 8.5c-3.2-13-13.2-22-30-25l-30.6 16.9z" clip-rule="evenodd"/>
</svg>

<svg xmlns="http://www.w3.org/2000/svg" xmlns:xlink="http://www.w3.org/1999/xlink" width="75" height="75" viewBox="0 0 198.1 197.6" overflow="visible">
  <defs>
    <linearGradient id="a" x1="174.1" x2="132.3" y1="215.5" y2="141.8" gradientUnits="userSpaceOnUse">
      <stop offset="0" stop-color="#FB7655"/>
      <stop offset="0" stop-color="#FB7655"/>
      <stop offset=".4" stop-color="#E42B1E"/>
      <stop offset="1" stop-color="#900"/>
      <stop offset="1" stop-color="#900"/>
    </linearGradient>
    <linearGradient id="c" x1="194.9" x2="141" y1="153.6" y2="117.4" gradientUnits="userSpaceOnUse">
      <stop offset="0" stop-color="#871101"/>
      <stop offset="0" stop-color="#871101"/>
      <stop offset="1" stop-color="#911209"/>
      <stop offset="1" stop-color="#911209"/>
    </linearGradient>
    <linearGradient id="d" x1="151.8" x2="97.9" y1="217.8" y2="181.6" gradientUnits="userSpaceOnUse">
      <stop offset="0" stop-color="#871101"/>
      <stop offset="0" stop-color="#871101"/>
      <stop offset="1" stop-color="#911209"/>
      <stop offset="1" stop-color="#911209"/>
    </linearGradient>
    <linearGradient id="e" x1="38.7" x2="47" y1="127.4" y2="181.7" gradientUnits="userSpaceOnUse">
      <stop offset="0" stop-color="#FFF"/>
      <stop offset="0" stop-color="#FFF"/>
      <stop offset=".2" stop-color="#E57252"/>
      <stop offset=".5" stop-color="#DE3B20"/>
      <stop offset="1" stop-color="#A60003"/>
      <stop offset="1" stop-color="#A60003"/>
    </linearGradient>
    <linearGradient id="f" x1="96.1" x2="99.2" y1="76.7" y2="132.1" gradientUnits="userSpaceOnUse">
      <stop offset="0" stop-color="#FFF"/>
      <stop offset="0" stop-color="#FFF"/>
      <stop offset=".2" stop-color="#E4714E"/>
      <stop offset=".6" stop-color="#BE1A0D"/>
      <stop offset="1" stop-color="#A80D00"/>
      <stop offset="1" stop-color="#A80D00"/>
    </linearGradient>
    <linearGradient id="g" x1="147.1" x2="156.3" y1="25.5" y2="65.2" gradientUnits="userSpaceOnUse">
      <stop offset="0" stop-color="#FFF"/>
      <stop offset="0" stop-color="#FFF"/>
      <stop offset=".2" stop-color="#E46342"/>
      <stop offset=".4" stop-color="#C82410"/>
      <stop offset="1" stop-color="#A80D00"/>
      <stop offset="1" stop-color="#A80D00"/>
    </linearGradient>
    <linearGradient id="h" x1="119" x2="158.7" y1="11.5" y2="-8.3" gradientUnits="userSpaceOnUse">
      <stop offset="0" stop-color="#FFF"/>
      <stop offset="0" stop-color="#FFF"/>
      <stop offset=".5" stop-color="#C81F11"/>
      <stop offset="1" stop-color="#BF0905"/>
      <stop offset="1" stop-color="#BF0905"/>
    </linearGradient>
    <linearGradient id="i" x1="3.9" x2="7.2" y1="113.6" y2="146.3" gradientUnits="userSpaceOnUse">
      <stop offset="0" stop-color="#FFF"/>
      <stop offset="0" stop-color="#FFF"/>
      <stop offset=".3" stop-color="#DE4024"/>
      <stop offset="1" stop-color="#BF190B"/>
      <stop offset="1" stop-color="#BF190B"/>
    </linearGradient>
    <linearGradient id="j" x1="-18.6" x2="135" y1="155.1" y2="-2.8" gradientUnits="userSpaceOnUse">
      <stop offset="0" stop-color="#BD0012"/>
      <stop offset="0" stop-color="#BD0012"/>
      <stop offset=".1" stop-color="#FFF"/>
      <stop offset=".2" stop-color="#FFF"/>
      <stop offset=".3" stop-color="#C82F1C"/>
      <stop offset=".3" stop-color="#820C01"/>
      <stop offset=".5" stop-color="#A31601"/>
      <stop offset=".7" stop-color="#B31301"/>
      <stop offset="1" stop-color="#E82609"/>
      <stop offset="1" stop-color="#E82609"/>
    </linearGradient>
    <linearGradient id="k" x1="99.1" x2="52.8" y1="171" y2="159.6" gradientUnits="userSpaceOnUse">
      <stop offset="0" stop-color="#8C0C01"/>
      <stop offset="0" stop-color="#8C0C01"/>
      <stop offset=".5" stop-color="#990C00"/>
      <stop offset="1" stop-color="#A80D0E"/>
      <stop offset="1" stop-color="#A80D0E"/>
    </linearGradient>
    <linearGradient id="l" x1="178.5" x2="137.4" y1="115.5" y2="78.7" gradientUnits="userSpaceOnUse">
      <stop offset="0" stop-color="#7E110B"/>
      <stop offset="0" stop-color="#7E110B"/>
      <stop offset="1" stop-color="#9E0C00"/>
      <stop offset="1" stop-color="#9E0C00"/>
    </linearGradient>
    <linearGradient id="m" x1="193.6" x2="173.2" y1="47.9" y2="26.1" gradientUnits="userSpaceOnUse">
      <stop offset="0" stop-color="#79130D"/>
      <stop offset="0" stop-color="#79130D"/>
      <stop offset="1" stop-color="#9E120B"/>
      <stop offset="1" stop-color="#9E120B"/>
    </linearGradient>
    <radialGradient id="n" cx="143.8" cy="79.4" r="50.4" gradientUnits="userSpaceOnUse">
      <stop offset="0" stop-color="#A80D00"/>
      <stop offset="0" stop-color="#A80D00"/>
      <stop offset="1" stop-color="#7E0E08"/>
      <stop offset="1" stop-color="#7E0E08"/>
    </radialGradient>
    <radialGradient id="o" cx="74.1" cy="145.8" r="66.9" gradientUnits="userSpaceOnUse">
      <stop offset="0" stop-color="#A30C00"/>
      <stop offset="0" stop-color="#A30C00"/>
      <stop offset="1" stop-color="#800E08"/>
      <stop offset="1" stop-color="#800E08"/>
    </radialGradient>
    <linearGradient id="p" x1="26.7" x2="10" y1="197.3" y2="140.7" gradientUnits="userSpaceOnUse">
      <stop offset="0" stop-color="#8B2114"/>
      <stop offset="0" stop-color="#8B2114"/>
      <stop offset=".4" stop-color="#9E100A"/>
      <stop offset="1" stop-color="#B3100C"/>
      <stop offset="1" stop-color="#B3100C"/>
    </linearGradient>
    <linearGradient id="q" x1="154.6" x2="192" y1="9.8" y2="26.3" gradientUnits="userSpaceOnUse">
      <stop offset="0" stop-color="#B31000"/>
      <stop offset="0" stop-color="#B31000"/>
      <stop offset=".4" stop-color="#910F08"/>
      <stop offset="1" stop-color="#791C12"/>
      <stop offset="1" stop-color="#791C12"/>
    </linearGradient>
    <linearGradient id="b" x1="174.1" x2="132.3" y1="215.5" y2="141.8" gradientUnits="userSpaceOnUse" xlink:href="#a"/>
  </defs>
  <path fill="url(#b)" fill-rule="evenodd" d="M153.5 130.4l-113 67.2 146.3-10L198 40" clip-rule="evenodd"/>
  <path fill="url(#c)" fill-rule="evenodd" d="M187 187.5l-12.5-86.8-34.3 45.2" clip-rule="evenodd"/>
  <path fill="url(#d)" fill-rule="evenodd" d="M187.3 187.5L95 180.3l-54 17" clip-rule="evenodd"/>
  <path fill="url(#e)" fill-rule="evenodd" d="M41 197.4L64 122l-50.7 10.8" clip-rule="evenodd"/>
  <path fill="url(#f)" fill-rule="evenodd" d="M140.2 146.2l-21.2-83L58.3 120" clip-rule="evenodd"/>
  <path fill="url(#g)" fill-rule="evenodd" d="M193.3 64.3L136 17.5 120 69" clip-rule="evenodd"/>
  <path fill="url(#h)" fill-rule="evenodd" d="M166.5.8l-33.7 18.6-21.3-19" clip-rule="evenodd"/>
  <path fill="url(#i)" fill-rule="evenodd" d="M0 158l14-25.7-11.3-30.7" clip-rule="evenodd"/>
  <path fill="#fff" fill-rule="evenodd" d="M2 100.7l11.4 32.6 50-11.2 57-53 16.2-51-25.4-18-43 16L27 55c-1 0-17.4 31.3-25.3 46z" clip-rule="evenodd"/>
  <path fill="url(#j)" fill-rule="evenodd" d="M42.3 42c29.5-29 67.4-46.4 82-31.7C138.8 25 123.3 60.7 94 90c-29.6 29-67 47-81.6 32.4-14.4-14.4.6-51 30-80.4z" clip-rule="evenodd"/>
  <path fill="url(#k)" fill-rule="evenodd" d="M41 197.4l23-75.7 75.8 24.3c-27.5 25.8-58 47.6-98.8 51.4z" clip-rule="evenodd"/>
  <path fill="url(#l)" fill-rule="evenodd" d="M120.6 69l19.5 77c23-24 44-50 54-82l-73 5z" clip-rule="evenodd"/>
  <path fill="url(#m)" fill-rule="evenodd" d="M193.4 64.4C201.2 40.8 203 7 166.4.8L136 17.5l57.4 47z" clip-rule="evenodd"/>
  <path fill="#9e1209" fill-rule="evenodd" d="M0 157.8c1 38.8 29 39.4 41 39.7L13.5 133 0 158z" clip-rule="evenodd"/>
  <path fill="url(#n)" fill-rule="evenodd" d="M120.7 69l53.8 33c1 .6 15.3-24 18.5-37.8L120.7 69z" clip-rule="evenodd"/>
  <path fill="url(#o)" fill-rule="evenodd" d="M63.8 121.7l30.6 59c18-10 32.2-21.8 45.2-34.6l-75.8-24z" clip-rule="evenodd"/>
  <path fill="url(#p)" fill-rule="evenodd" d="M13.3 133.2L9 184.8c8.2 11 19.4 12 31.2 11.2-8.5-21.2-25.6-63.7-27-62.8z" clip-rule="evenodd"/>
  <path fill="url(#q)" fill-rule="evenodd" d="M136 17.6l60.6 8.5c-3.2-13-13.2-22-30-25L136 18z" clip-rule="evenodd"/>
</svg>
